packages/kaspersky-hexa-ui-icons/src/iconsSVGs/64x42/FlagCa.svg

<svg width="64" height="42" viewBox="0 0 64 42" fill="none" xmlns="http://www.w3.org/2000/svg">
<g clip-path="url(#clip0_37941_2224)">
<rect width="64" height="42" rx="5" fill="white"/>
<rect x="0.38623" y="0.5" width="63" height="41" rx="4.5" stroke="#F5F5F5"/>
<rect x="44.7063" width="19.2937" height="42.3542" fill="#FF3131"/>
<path fill-rule="evenodd" clip-rule="evenodd" d="M0 42.3542H19.2937V0H0V42.3542Z" fill="#FF3131"/>
<path fill-rule="evenodd" clip-rule="evenodd" d="M36.4723 19.5286C35.9784 20.0224 35.144 19.5758 35.2809 18.891L36.2355 14.1181L33.4119 15.5299L32.0001 11.2945L30.5883 15.5299L27.7647 14.1181L28.7192 18.891C28.8562 19.5758 28.0218 20.0224 27.5279 19.5286L26.852 18.8527C26.5763 18.577 26.1294 18.577 25.8537 18.8527L24.941 19.7653L22.1174 18.3535L23.5292 21.1771L22.6166 22.0898C22.3409 22.3655 22.3409 22.8124 22.6166 23.0881L26.3529 26.8244H30.5883L31.2942 31.0598H32.706L33.4119 26.8244H37.6473L41.3836 23.0881C41.6593 22.8124 41.6593 22.3655 41.3836 22.0898L40.4709 21.1771L41.8827 18.3535L39.0591 19.7653L38.1465 18.8527C37.8708 18.577 37.4238 18.577 37.1482 18.8527L36.4723 19.5286Z" fill="#FF3131"/>
</g>
<defs>
<clipPath id="clip0_37941_2224">
<rect width="64" height="42" rx="5" fill="white"/>
</clipPath>
</defs>
</svg>

<svg xmlns="http://www.w3.org/2000/svg" width="64" height="42" fill="none" viewBox="0 0 64 42"><g clip-path="url(#a)"><rect width="64" height="42" fill="#fff" rx="5"/><rect width="63" height="41" y="1" stroke="#f5f5f5" rx="5"/><path fill="#ff3131" d="M44.7063 0H64v42.3542H44.7063z"/><path fill="#ff3131" fill-rule="evenodd" d="M0 42.354h19.294V0H0zm36.472-22.825c-.494.494-1.328.047-1.191-.638l.955-4.773-2.824 1.412L32 11.295l-1.412 4.235-2.824-1.412.955 4.773c.137.685-.697 1.131-1.191.638l-.676-.676a.706.706 0 0 0-.998 0l-.913.913-2.824-1.412 1.412 2.824-.913.913a.706.706 0 0 0 0 .998l3.736 3.736h4.235l.706 4.235h1.412l.706-4.235h4.235l3.736-3.736a.706.706 0 0 0 0-.998l-.913-.913 1.412-2.824-2.824 1.412-.913-.913a.706.706 0 0 0-.998 0z" clip-rule="evenodd"/></g><defs><clipPath id="a"><rect width="64" height="42" fill="#fff" rx="5"/></clipPath></defs></svg>
